!!!SOCIAL_FUNCTION:	moccasin game songs
!!!PDT:	1909
!!!OTL: No_168.krn
!!!REG: Great_Lakes
!!!LANG: Non-Tone
!!!LING_GROUP: Algonquin
**kern	**kern
*staff2	*staff1
=1-	=1-
*clefF4	*clefG2
*k[f#c#g#d#]	*k[f#c#g#d#]
*M2/4	*M2/4
2r	8.g#/L
.	16b/Jk
.	16g#/LK
.	8g#/
.	32g#/LL
.	32g#/JJJ
=2	=2
12GG#^/	4g#/
12r	.
12GG#/	.
12GG#^/	4e/
12r	.
12GG#/	.
=3	=3
2r	12e/L
.	12c#/
.	12e/J
.	8.c#/L
.	16c#/Jk
=4||	=4||
*M3/4	*M3/4
2.r	2.c#/
=5	=5
2.r	4g#/
.	4e/
.	12g#/L
.	12c#/
.	12g#/J
=6	=6
*M2/4	*M2/4
2r	4c#/
.	8.c#/L
.	16B/Jk
=7	=7
4G#\	2r
8.G#\L	.
16F#\Jk	.
=8	=8
8E\L	2r
8E\J	.
[4E\	.
=9	=9
2E\]	2r
=10||	=10||
*M3/4	*M3/4
4c#\	2.r
4c#\	.
8c#\L	.
8B\J	.
=11||	=11||
*M2/4	*M2/4
4G#\	2r
G#q/	.
12G#\L	.
12F#\	.
12E\J	.
=12	=12
8.C#/L	2r
16C#/Jk	.
[4C#/	.
=13	=13
2C#/]	2r
==	==
*-	*-
